{
  "type": "map",
  "version": "1.10",
  "tiledversion": "1.10.2",
  "orientation": "orthogonal",
  "renderorder": "right-down",
  "infinite": false,
  "width": 48,
  "height": 32,
  "tilewidth": 32,
  "tileheight": 32,
  "nextlayerid": 3,
  "nextobjectid": 9,
  "tilesets": [],
  "layers": [
    {
      "type": "objectgroup",
      "id": 1,
      "name": "collision",
      "opacity": 1,
      "visible": true,
      "x": 0,
      "y": 0,
      "draworder": "topdown",
      "objects": [
        {
          "id": 1,
          "name": "wall-north",
          "type": "",
          "x": 0,
          "y": 0,
          "width": 1536,
          "height": 96,
          "rotation": 0,
          "visible": true
        },
        {
          "id": 2,
          "name": "wall-west",
          "type": "",
          "x": 0,
          "y": 96,
          "width": 32,
          "height": 928,
          "rotation": 0,
          "visible": true
        },
        {
          "id": 3,
          "name": "wall-east",
          "type": "",
          "x": 1504,
          "y": 96,
          "width": 32,
          "height": 928,
          "rotation": 0,
          "visible": true
        },
        {
          "id": 4,
          "name": "wall-south-west",
          "type": "",
          "x": 32,
          "y": 992,
          "width": 672,
          "height": 32,
          "rotation": 0,
          "visible": true
        },
        {
          "id": 5,
          "name": "wall-south-east",
          "type": "",
          "x": 832,
          "y": 992,
          "width": 672,
          "height": 32,
          "rotation": 0,
          "visible": true
        },
        {
          "id": 6,
          "name": "block-bed",
          "type": "",
          "x": 128,
          "y": 128,
          "width": 224,
          "height": 320,
          "rotation": 0,
          "visible": true
        }
      ]
    },
    {
      "type": "objectgroup",
      "id": 2,
      "name": "zones",
      "opacity": 1,
      "visible": true,
      "x": 0,
      "y": 0,
      "draworder": "topdown",
      "objects": [
        {
          "id": 7,
          "name": "bed",
          "type": "spawn",
          "point": true,
          "x": 440,
          "y": 320,
          "width": 0,
          "height": 0,
          "rotation": 0,
          "visible": true
        },
        {
          "id": 8,
          "name": "front-door",
          "type": "door",
          "x": 704,
          "y": 976,
          "width": 128,
          "height": 48,
          "rotation": 0,
          "visible": true,
          "properties": [
            {
              "name": "target",
              "type": "string",
              "value": "island"
            },
            {
              "name": "spawn",
              "type": "string",
              "value": "outside-front-door"
            }
          ]
        }
      ]
    }
  ]
}
