{
  "type": "map",
  "version": "1.10",
  "tiledversion": "1.10.2",
  "orientation": "orthogonal",
  "renderorder": "right-down",
  "infinite": false,
  "width": 128,
  "height": 128,
  "tilewidth": 32,
  "tileheight": 32,
  "nextlayerid": 3,
  "nextobjectid": 10,
  "tilesets": [],
  "layers": [
    {
      "type": "objectgroup",
      "id": 1,
      "name": "collision",
      "opacity": 1,
      "visible": true,
      "x": 0,
      "y": 0,
      "draworder": "topdown",
      "objects": [
        {
          "id": 1,
          "name": "water-north",
          "type": "",
          "x": 0,
          "y": 0,
          "width": 4096,
          "height": 64,
          "rotation": 0,
          "visible": true
        },
        {
          "id": 2,
          "name": "water-south",
          "type": "",
          "x": 0,
          "y": 4032,
          "width": 4096,
          "height": 64,
          "rotation": 0,
          "visible": true
        },
        {
          "id": 3,
          "name": "water-west",
          "type": "",
          "x": 0,
          "y": 64,
          "width": 64,
          "height": 3968,
          "rotation": 0,
          "visible": true
        },
        {
          "id": 4,
          "name": "water-east",
          "type": "",
          "x": 4032,
          "y": 64,
          "width": 64,
          "height": 3968,
          "rotation": 0,
          "visible": true
        },
        {
          "id": 5,
          "name": "block-house",
          "type": "",
          "x": 1856,
          "y": 896,
          "width": 384,
          "height": 288,
          "rotation": 0,
          "visible": true
        },
        {
          "id": 6,
          "name": "block-fountain",
          "type": "",
          "x": 1952,
          "y": 2200,
          "width": 192,
          "height": 192,
          "rotation": 0,
          "visible": true
        }
      ]
    },
    {
      "type": "objectgroup",
      "id": 2,
      "name": "zones",
      "opacity": 1,
      "visible": true,
      "x": 0,
      "y": 0,
      "draworder": "topdown",
      "objects": [
        {
          "id": 7,
          "name": "outside-front-door",
          "type": "spawn",
          "point": true,
          "x": 2048,
          "y": 1320,
          "width": 0,
          "height": 0,
          "rotation": 0,
          "visible": true
        },
        {
          "id": 8,
          "name": "house-front-door",
          "type": "door",
          "x": 2000,
          "y": 1184,
          "width": 96,
          "height": 48,
          "rotation": 0,
          "visible": true,
          "properties": [
            {
              "name": "target",
              "type": "string",
              "value": "house"
            },
            {
              "name": "spawn",
              "type": "string",
              "value": "bed"
            }
          ]
        },
        {
          "id": 9,
          "name": "landmark-elemix",
          "type": "project",
          "x": 2560,
          "y": 1720,
          "width": 128,
          "height": 128,
          "rotation": 0,
          "visible": true,
          "properties": [
            {
              "name": "slug",
              "type": "string",
              "value": "elemix"
            },
            {
              "name": "promptOffsetX",
              "type": "int",
              "value": 0
            },
            {
              "name": "promptOffsetY",
              "type": "int",
              "value": -88
            }
          ]
        }
      ]
    }
  ]
}
